X:1
T:Title
%%score { ( 1 3 5 ) | ( 2 4 ) }
L:1/8
Q:1/4=120
M:6/8
K:Bb
V:1 treble nm="Piano"
V:3 treble 
V:5 treble 
V:2 treble 
V:4 treble 
V:1
!p! .F | (G3 A2 B) | (d3 x2 c2) F |!<(! (^B3 x2 c2 d) | (f2 x2 .e2)!<)! e2 |!mf! =e3 x2 (b2 a | %6
!>(! A3) x2 (.b2 a | A3) x2 (.b2!>)! a2 | A2- (.[DF] .[DF] .[DF].[DF]) z x/ | %9
[K:bass] z ([EF][EF] [EF][EF]) z x | x3 ([B,D].[B,D] .[B,D][B,D]) x | %11
!p! z (.[FG].[FG] .[FG][FG]) z | z ([CE][CE] [CE]!p![CE])[K:treble]!f! C4 | (._D3 x7 | =D3 A2 G2 | %15
!>(! (^G,2 x A, D2 x A,)!>)! | (A,3 B,2)[K:bass] A, |!p!!p! z [EF][EF] x [EF].[EF]) z | %18
 x3 (.[B,D].[B,D] .[B,D].[B,D]) x | A,2 ([FG] [FG] .[FG].[FG]) z | z ([CE] x | %21
[K:treble] _D3 c2 B2) | =D3 x7 |!p! ^G,2 x A, .D2 A, | (C2 x B,2) x | D3 z!mf! z [A,^C][A,C] | %26
!<(! (^C/D/=E/F/^G/A/)!<)! (^c/d/).f x | D3 z z [A,^C]B, x |!<(! (^C/D/=E/F/^G/A/)!<)! (^c/d/)a x | %29
 D3 z z [A,^C]B, |!<(! (^C/D/=E/F/^G/A/)!<)! (^c/d/).f z | D3 z F2 [A,^C][A,C] x | %32
!<(! (^C/D/=E/F/^G/A/)!<)! (^c/d/)a x |!mf! !>!d'3 x3!>)!!>(! d3 x4 | (CD/E/=E/) (G2 F) x13/2 | %35
 .b3 B3 x2 | (=A,>B,=B,/^C/) (=E2 D) x | x2 [B,DG] [B,DG] a2 x A) | x2 [B,DG] [B,DG] (!^!a2 x A2) | %39
!p!!<(! (=E>^D!<)!E/!>(!!tenuto!F/) (.A2!>)! G2)[K:bass] | %40
 x3/2!<)!!<(! [G,B,D]2!>)!!>(! [=E,G,^C]2 x/ |[K:treble] (D3 F2 =E) | %42
!<(! (^C/D/=E/F/^G/A/)!<)! (^c/d/).f z | D3 !^!F2 [A,C^E]2 x5 | %44
!<(! (^C/D/=E/F/^G/A/)!<)! (^c/d/)a x | (D3 !^!F2 [B,=E]2) | %46
!<(! (^C/D/=E/F/^G/A/)!<)! (^c/d/).f x | D3 z z [A,^C][A,C] x | %48
!<(! (^C/D/=E/F/^G/A/)!<)! (^c/d/)a x |!mf! d'3 d3 x2 | (C>DE/=E/) (G2 F) x8 | %51
!>(! b3 x2 B3 x2 | x4!>)! (B,>=B,C/D/) (F2 x E) | z [F,-EF][F,EF] x [F,-EF][F,EF] | %54
 (^G>AG/A/) (d^Bc) | x3/2 [F,-EF][F,EF] [F,-EF][F,EF] x/ | (^G>AG/.A/) (d^Bc) | %57
 (=G2 x ((c) (_G2)) F) x | (^G2 x c) (._G2 F) ||!p! (=G3 x2 A2 B) | (d3 x2 c2 F) | %61
!p! (=B3 x2!pp! c2 d) |!<(! (f3 x2 e2)!<)! e |!mf! =e3 x2 (b2 a | A3)!>(! (b2 a2 | %65
 A3) x2 b2 a!>)! | A3 x3 |[K:bass] z [EF][EF] [EF][EF] z | z [B,D][B,D] [B,D][B,D] z | %69
 z F[FG] [FG][FG] z | z [CE][CE] [CE][CE] z |!f! (_F,,3 E,2 D,2) | (=D3 A2 G) | %73
 (^G,2 x2 A,) D2 [F,A,][E,A,] | C2 x4 |!pp! (^G2 x7 A d2 A) | (c3 x2 B3) x2 | ^C3 x2 D3 x2 | %78
 (A,3 x2 B,3) | (^g2 a d'2 x a2) | (c'3 x2 b3) |!>(! ^c3 x2 d3!>)! x2 | (A2 x B3) x | %83
 (A3 x2 B3) x6 | (A3 B3) x7 | A3- A(^G/A/B/A/) | (d2 c) x8 .B3 |] %87
V:2
 x |!ped! (3(.[B,DF].[B,DF][B,DF]!ped-up! .[B,DF] .[B,DF]) z x | %2
 x3!ped! ([A,EF][A,EF]!ped-up! [A,EF][A,EF]) x | x3!ped! ([_A,DF][A,DF]!ped-up! [A,DF][A,DF]) x | %4
 x2!ped! (.[G,D] .[G,CE]!ped-up! .[G,D].[G,CE]) x2 | %5
 x3!ped! (.[G,A,^CE].[G,A,D] .[G,A,CE].[G,A,CE])!ped-up! z | %6
[K:bass] x3!ped! (.[F,A,D].[F,A,D] .[F,A,D][F,A,D]) x | %7
 x3!ped! (.[E,G,A,^C][E,G,A,C] [E,G,A,C][E,G,A,C]) x2 | %8
 z!ped! (!arpeggio!.[D,A,].[D,A,] x .[D,A,].[D,A,])!p!!ped-up!F,3/2 | %9
 x!ped! .[C,F,].[C,F,]!ped-up! .[C,F,]!ped!.[C,F,]!ped-up! z x | %10
 G,3!ped! B,,B,,!ped-up! B,,!ped!B,,!ped-up! x | %11
 x!ped! (.[D,G,].[D,G,]!ped-up! .[D,G,]!ped!.[D,G,]) x | (_A,3!ped!!ped-up! G,2)!ped! x4!ped-up! | %13
 x3!ped! ([G,B,=E][G,B,E] [G,B,E][G,B,E]) x3 | z!ped! (.[F,B,F].[F,B,F] .[F,B,F].[F,B,F]) x2 | %15
 x2!ped! .[F,,-E,]!ped-up! .[F,,E,] x2!ped! .[^F,,-D,]!ped-up![F,,D,] | %16
 z!ped! (.[G,,D,G,].[G,,D,G,]!ped-up! .[G,,D,G,]!ped!.[G,,D,G,]) x | %17
 z2!ped! (.[C,F,] .[C,F,]!ped-up! .[C,F,]!ped![C,F,]) x | %18
 G,3!ped! .B,,B,,!ped-up! .B,,!ped!.B,,!ped-up! x | %19
 x2!ped! (.[D,G,] .[D,G,]!ped-up! .[D,G,].[D,G,]) x | (_A,3 | %21
 z!ped! [G,B,=E][G,B,E] [G,B,E][G,B,E] x2 | x3!ped! [F,B,F][F,B,F] [F,B,F][F,B,F] x3 | %23
 x2!ped! [E,_G,]!ped-up! .[E,G,] x!ped! .[F,,E,]!ped-up!.[F,,E,] | %24
 x!ped! [B,,E,][B,,E,]!ped-up! (E,^C,D,) | x2!ped! [G,B,F] [G,B,F] x!ped! [A,,G,]!ped-up!.[A,,G,] | %26
 x .[F,A,D].D, .[A,DF].D,.[DFA] | x2!ped! [G,B,F] [G,B,F] x!ped! [A,,G,]!ped-up!.[A,,G,] x | %28
 x .[F,A,D].D, .[A,DF].D,.[DFA] | x2!ped! [G,B,F] [G,B,F]!ped-up! z!ped! [A,,G,]!ped-up![A,,G,] | %30
 x (.[F,A,D]D, .[A,DF]).D,.[DFA] | x2!ped! [G,B,F] [G,B,F] x2!ped! [A,,G,]!ped-up![A,,G,] x | %32
 x .[F,A,D].D, [A,DF].D,.[DFA] | %33
[K:treble] x3 D8!ped!!ped-up![K:bass]!ped! .[B,-DA]!ped-up!.[B,DG] | %34
 x!ped! .[G,B,-]!ped-up![G,B,]!ped! .[F,,-C,]!ped-up!.[F,,C,] x7 | %35
 z!ped! [_C,,-F,,B,,]!ped-up![C,,F,,A,,] x3!ped! .[B,,,-F,,A,,]!ped-up!.[B,,,F,,=G,,] | %36
 x3/2!ped! .[=E,G,]!ped-up!.[E,G,] x3/2 .[B,,D,]2 | %37
!ped! (!>!=E2 x =E,)!ped-up! x2!ped-up!!ped! [A,^CG][A,CG] | %38
!ped! (=E2 x =E,)!ped-up! x2!ped! [A,^CG]!ped-up![A,CG] x | %39
 x3/2!ped! [G,B,D]2 z!ped! [E,B,D]2 x/!ped-up! | %40
!ped! (=E,,>^D,,E,,/)G,,/)!ped! (B,,2!ped-up! A,,) | z!ped! [G,B,F][G,B,F] x [A,,G,][A,,G,] | %42
 z .[F,A,D].D, .[A,DF].D,.[DFA] | z [G,B,F][G,B,F] x [A,,G,][A,,G,] x6 | %44
 z .[F,A,D].D, .[A,DF].D,.[DFA] | z [G,B,F][G,B,F] x !arpeggio![A,,G,][A,,G,] x | %46
 x .[F,A,D].D, .[A,DF].D,.[DFA] | x2 [G,B,F] [G,B,F] x [A,,G,][A,,G,] x | %48
 z .[F,A,D].D, .[A,DF].D,(.[DFA] |[K:treble] z [=C-D^FB])[CDFA] x3 .[B,-D_A].[B,DG] | %50
[K:bass] z .[G,B,-][G,B,] x .[F,,-C,].[F,,C,] C,8 | %51
 x3 [_C,,-D,,F,,B,,][C,,D,,F,,A,,] x3 .[B,,,D,,A,,].[B,,,D,,_G,,] | %52
 z [F,_A,-][F,A,] x2 [C,G,C-][C,C] |!p! (^G,,>A,,G,,/A,,/) (D,=B,,C,) | %54
 z ([_G,D][G,CE]) x [F,A,E-][F,A,E] | (^G,,>A,,G,,/A,,/) (D,=B,,C,) | %56
 x3/2 [_G,CE-][G,CE] [F,A,E-][F,A,E] x/ | x2 [_B,CE-] [B,CE][K:treble] x2 [dfac']2 | %58
 x2 (b [gac']) z [dgb-][dfb] || x3 (.[gbd'].[gbd'] .[gbd'].[gbd']) z | %60
 x3 ([fc'd'][fc'd'] .[fc'd'].[fc'd']) x | x3 (.[_fbd'].[fbd'] .[fbd'].[fbd']) x | %62
 x3 ([G,D][G,CE] [G,CE][G,CE]) z | x3 ([G,A,^CE][G,A,CE] [G,A,CE][G,A,CE]) z | %64
 z P[F,A,D][F,A,D] ([F,A,D][F,A,D] x2 | x3 [=E,G,A,^C][E,G,A,C] [E,G,A,C][E,G,A,C]) x | %66
 z [D,A,][D,A,] [D,A,][D,A,]F, | z [C,F,][C,F,] [C,F,][C,F,] x | (G,3 F,2) G, | %69
 x!ped! [D,G,][D,G,] [D,G,][D,G,] x | (_A,3 G,2) x | z [G,B,=E][G,B,E] [G,B,E][G,B,E] x2 | %72
 z [F,B,F][F,B,F] [F,B,F][F,B,F] z | x2 [E,-_G,]2 [E,G,]2 z !arpeggio![F,,E,][F,,E,] | %74
 x [B,,E,][B,,E,] (E,^C,D,) | E,8 ([F,=CE]!arpeggio![F,CE] [F,CD][F,CD]) x | %76
 x3 [=G,B,D-][G,B,D] x3 [G,B,E-][G,B,E] | x3 [_G,B,=E-][G,B,E] x3 .[F,B,F-].[F,B,F] | %78
 x3 z [E,_G,] z z [B,,D,F,] |[K:treble] z .[^F-ce].[Fce] x2 .[F-cd].[Fcd] x | %80
 x3 .[=G-Bd].[GBd] z .[GBe-].[GBe] | x3 .[_GB=e-].[GBe] x3 .[FBf-].[FBf] | z z [_E_G] z z2 [B,DF] | %83
 x3 [E_G]2 c8 [B,DF] | z z [E_G]2 c8 [B,DF] | z2!ped! .[E_G]3 x | x2 z (e8 [Gd]2) x |] %87
V:3
 x | x6 | x8 | x8 | x8 | x8 | x8 | x9 | x15/2 |[K:bass] G,3 A,2 C2 | x8 | (A,2 x =B,2 D) | %12
 x5[K:treble] x4 | _D6 c2 B2 | D6 x | x8 | x5[K:bass] x | (G,3 x A,2 .C) | x8 | x4 =B,2 D | x3 | %21
[K:treble] x7 | D6 A2 .G2 | x4 z [F,A,]F, | z [_G,A,][G,A,] F,2 x | z2 x2 F2 =E | x6 | %27
 z2 x2 !>!F2 =E2 | x6 | z2 x2 !>!F2 =E | x6 | z2 x5 =E2 | x6 | x13 | z2 x10 | x8 | %36
 z2 z z .F,-.F, x | x8 | x9 | x13/2[K:bass] x/ | x6 |[K:treble] z2 z z [A,^C][A,C] | x6 | %43
 z2 z z .D8 | x6 | z2 z z [A,^C]B, x | x6 | z2 x2 F2 [^C=E]2 | x6 | x8 | z2 z z .[A,-C].[A,C] x8 | %51
 x10 | x7 | x6 | x6 | x6 | x6 | x8 | x7 || x8 | x8 | x8 | x8 | x8 | x7 | x8 | %66
 z [DF][DF] [DF]!p![DF] z |[K:bass] (G,3 A,2 C) | x6 | (A,3 (=B,2) D) | x5 E,, | _F,,6 x | D6 | %73
 x5 z x2 A, | z [G,_A,][G,A,] [F,B,]2 x | x13 | x10 | x10 | x8 | x8 | x8 | x10 | x7 | x14 | x13 | %85
 x6 | z2 z x8 .[DF]3 |] %87
V:4
 x | x6 | x8 | x8 | x8 | x8 |[K:bass] x8 | x9 | x15/2 | x7 | x5 F,2 G, | x6 | %12
 z (.C,.C, .C,.C,) z x3 | x10 | x7 | x8 | x6 | x7 | x5 F,2 G, | x7 | x3 | x7 | x10 | x7 | %24
 x3 .B,,2 x | x7 | x6 | x8 | x6 | x7 | x6 | x9 | x6 |[K:treble] x3 z [C-FB][CDFA][K:bass] x7 | %34
 x4 E,8 | x8 | x7 | x8 | x9 | x7 | x6 | x6 | x6 | x12 | x6 | x7 | x6 | x8 | x6 |[K:treble] x8 | %50
[K:bass] x14 | x10 | x7 | x6 | x6 | x6 | x6 | x4[K:treble] x4 | x7 || x8 | x8 | x8 | x8 | x8 | x7 | %65
 x8 | x6 | x6 | z B,,B,, B,,B,, x | x6 | z C,C, C,C, x | x7 | x6 | x9 | x3 B,,2 x | x13 | x10 | %77
 x10 | x8 |[K:treble] x8 | x8 | x10 | x7 | x14 | x13 | x6 | x14 |] %87
V:5
 x | x6 | x8 | x8 | x8 | x8 | x8 | x9 | x15/2 |[K:bass] x7 | x8 | x6 | x5[K:treble] x4 | x10 | x7 | %15
 x8 | x5[K:bass] x | x7 | x8 | x7 | x3 |[K:treble] x7 | x10 | x7 | x6 | x7 | x6 | x8 | x6 | x7 | %30
 x6 | x9 | x6 | x13 | x3/2 z z (.[A,C].[G,B,D]) x13/2 | x8 | x7 | x8 | x9 | x13/2[K:bass] x/ | x6 | %41
[K:treble] x6 | x6 | x12 | x6 | x7 | x6 | x8 | x6 | x8 | x14 | x10 | x7 | x6 | x6 | x6 | x6 | x8 | %58
 x7 || x8 | x8 | x8 | x8 | x8 | x7 | x8 | x6 |[K:bass] x6 | x6 | x6 | x6 | x7 | x6 | x9 | x6 | %75
 x13 | x10 | x10 | x8 | x8 | x8 | x10 | x7 | x14 | x13 | x6 | x14 |] %87

